X: 122
T: Beautiful Swany River
T: Reel, G
L: 1/16
M: C|
K: G
|: B2A2| G4G2D2 B,2D2G2A2| B4B2G2 D2G2B2d2| e2d2e2f2 g2e2d2B2| A2c2B2G2 A2G2E2F2| 
G4G2D2 B,2D2G2A2| B4B2G2 D2G2B2d2| e2d2e2f2 g2e2d2c2| B4G4 G4:| 
|: d2c2| B2G2B2d2 B2G2B2d2| c2A2c2e2 c2A2c2e2| d2B2d2g2 b2g2d2B2| e2c2A4 A6d2| 
B2G2B2d2 B2G2B2d2| c2A2c2e2 c2A2c2e2| d2g2b2a2 g2f2e2f2| g4g2f2 g4:| 
D: Wendy MacIsaac, That's What You Get, WMT004
D: Dougie MacDonald, A Miner
